src/images/thumbnails/part-0.svg

<svg version="1.1" id="Layer_1" xmlns="http://www.w3.org/2000/svg" xmlns:xlink="http://www.w3.org/1999/xlink" x="0px" y="0px"
	 width="100%" viewBox="0 0 635 635" enable-background="new 0 0 635 635" xml:space="preserve">
<path fill="#FFFFFF" opacity="1.000000" stroke="none" 
	d="
M373.000000,636.000000 
	C250.166687,636.000000 127.833359,635.979980 5.500154,636.094299 
	C1.750709,636.097778 0.904550,635.249451 0.906442,631.500000 
	C1.011754,422.833435 1.011726,214.166809 0.906489,5.500226 
	C0.904599,1.751389 1.750141,0.904529 5.499866,0.906422 
	C214.166443,1.011747 422.833069,1.011732 631.499634,0.906510 
	C635.248169,0.904620 636.095520,1.749726 636.093628,5.499753 
	C635.988281,214.166321 635.988281,422.832947 636.093506,631.499512 
	C636.095398,635.247742 635.251282,636.100586 631.500305,636.095215 
	C545.500366,635.971680 459.500153,636.000000 373.000000,636.000000 
z"/>
<path fill="#020202" opacity="1.000000" stroke="none" 
	d="
M375.506470,78.508789 
	C389.896576,63.241173 413.747528,61.687092 428.372498,68.748863 
	C446.210907,77.362244 456.459106,95.369614 454.982941,116.130051 
	C453.748810,133.486771 439.764343,150.216171 422.058990,155.516373 
	C401.907684,161.548813 380.171387,153.272354 369.088043,135.346741 
	C358.011719,117.432449 360.513702,94.494888 375.506470,78.508789 
z"/>
<path fill="#020202" opacity="1.000000" stroke="none" 
	d="
M80.019150,375.996033 
	C66.083572,362.931183 61.836502,347.048065 66.298279,329.303345 
	C70.559921,312.354492 81.932846,301.402863 98.796898,296.653442 
	C123.898682,289.584106 149.639221,304.636658 156.012878,329.863220 
	C162.403000,355.154999 147.062378,380.978455 121.719238,386.531067 
	C106.474396,389.871155 92.325066,386.775360 80.019150,375.996033 
z"/>
<path fill="#020202" opacity="1.000000" stroke="none" 
	d="
M191.326660,236.673035 
	C173.023987,217.175064 173.479034,188.591751 192.129852,170.441299 
	C210.225952,152.830704 239.295685,153.273743 257.375610,171.435669 
	C275.051025,189.191284 275.311096,218.190811 257.953644,235.885056 
	C239.321854,254.878357 211.026871,255.321793 191.326660,236.673035 
z"/>
<path fill="#020202" opacity="1.000000" stroke="none" 
	d="
M264.120392,45.843063 
	C286.040161,62.431187 288.180298,92.119713 274.507874,110.637161 
	C262.161499,127.358673 240.395157,134.228561 220.736633,127.044365 
	C201.125183,119.877380 188.917572,100.936546 190.586807,80.265099 
	C193.548477,43.587898 233.248032,24.825403 264.120392,45.843063 
z"/>
<path fill="#010101" opacity="1.000000" stroke="none" 
	d="
M31.731789,110.732353 
	C51.402908,92.014862 79.710922,92.633820 98.456245,111.933884 
	C115.696716,129.684555 115.106331,158.716904 97.141235,176.600586 
	C79.349686,194.311493 50.333641,194.545120 32.409763,177.121765 
	C13.559317,158.797714 13.157567,130.229416 31.731789,110.732353 
z"/>
<path fill="#D9D9D9" opacity="1.000000" stroke="none" 
	d="
M164.080475,592.015991 
	C151.092270,581.794678 143.692673,569.214355 143.937561,552.511902 
	C144.241257,531.800354 159.842743,512.451782 180.252930,508.117249 
	C205.354950,502.786377 229.304428,517.838379 235.406540,542.712524 
	C242.176895,570.310547 223.102463,595.533813 197.606033,599.240967 
	C185.389709,601.017334 174.607895,598.589661 164.080475,592.015991 
z"/>
<path fill="#D9D9D9" opacity="1.000000" stroke="none" 
	d="
M362.102295,417.717834 
	C379.528992,427.884369 387.368225,442.909760 387.018951,462.544464 
	C386.643616,483.646179 365.412506,504.560089 344.329224,505.121979 
	C332.242950,505.444092 321.470947,502.938293 311.686066,495.503418 
	C292.321442,480.789581 288.311737,450.794525 303.197571,431.264557 
	C315.180756,415.542877 337.988251,406.579193 362.102295,417.717834 
z"/>
<path fill="#D9D9D9" opacity="1.000000" stroke="none" 
	d="
M528.357178,269.607758 
	C550.071594,285.524017 554.412964,313.911133 538.710815,335.536346 
	C524.799927,354.694611 494.790649,359.582764 475.715790,346.219208 
	C453.527618,330.674500 449.634033,301.646454 462.759674,281.887726 
	C477.238007,260.092682 508.279175,254.148865 528.357178,269.607758 
z"/>
<path fill="#D9D9D9" opacity="1.000000" stroke="none" 
	d="
M604.228027,508.846985 
	C611.999023,519.003052 615.355591,530.116455 615.055969,542.573608 
	C614.549744,563.621399 593.361023,584.513977 572.330933,585.117371 
	C556.895508,585.560181 544.165283,580.805847 533.638489,569.320007 
	C520.866943,555.384949 518.669617,533.335510 527.681702,516.951904 
	C534.065918,505.345703 543.654907,497.199982 556.533813,494.211975 
	C574.839783,489.964844 591.118530,494.067963 604.228027,508.846985 
z"/>
<path fill="#D9D9D9" opacity="1.000000" stroke="none" 
	d="
M395.795502,617.415283 
	C378.789490,611.902588 367.557068,600.925232 363.637512,583.937988 
	C357.459869,557.164185 373.147369,532.207336 400.070984,527.353882 
	C428.818542,522.171631 449.916229,541.351440 454.355347,565.544861 
	C458.820801,589.881775 441.434326,614.214294 416.934204,618.687317 
	C410.121216,619.931152 403.016998,619.420471 395.795502,617.415283 
z"/>
</svg>

<svg xmlns="http://www.w3.org/2000/svg" width="100%" viewBox="0 0 635 635" height="150" xmlns:v="https://vecta.io/nano"><path fill="#fff" d="M373 636c-122.833 0-245.167-.02-367.5.094-3.749.003-4.596-.845-4.594-4.594V5.5C.905 1.751 1.75.905 5.5.906h626c3.749-.002 4.596.843 4.594 4.593v626c.002 3.748-.842 4.601-4.593 4.596L373 636z"/><path d="M375.506 78.509c14.39-15.268 38.241-16.822 52.866-9.76 17.838 8.613 28.087 26.621 26.61 47.381-1.234 17.357-15.219 34.086-32.924 39.386-20.151 6.032-41.888-2.244-52.971-20.17-11.076-17.914-8.574-40.852 6.418-56.838zM80.019 375.996c-13.936-13.065-18.183-28.948-13.721-46.693 4.262-16.949 15.635-27.9 32.499-32.65 25.102-7.069 50.842 7.983 57.216 33.21 6.39 25.292-8.951 51.115-34.294 56.668-15.245 3.34-29.394.244-41.7-10.535zm111.308-139.323c-18.303-19.498-17.848-48.081.803-66.232 18.096-17.611 47.166-17.168 65.246.994 17.675 17.756 17.935 46.755.578 64.449-18.632 18.993-46.927 19.437-66.627.788zm72.793-190.83c21.92 16.588 24.06 46.277 10.387 64.794-12.346 16.722-34.113 23.591-53.771 16.407-19.611-7.167-31.819-26.108-30.15-46.779 2.962-36.677 42.661-55.44 73.534-34.422z" fill="#020202"/><path fill="#010101" d="M31.732 110.732c19.671-18.717 47.979-18.099 66.724 1.202 17.24 17.751 16.65 46.783-1.315 64.667-17.792 17.711-46.808 17.945-64.731.521-18.85-18.324-19.252-46.892-.678-66.389z"/><path d="M164.08 592.016c-12.988-10.221-20.388-22.802-20.143-39.504.304-20.712 15.905-40.06 36.315-44.395 25.102-5.331 49.051 9.721 55.154 34.595 6.77 27.598-12.304 52.821-37.801 56.528-12.216 1.776-22.998-.651-33.526-7.225zm198.022-174.298c17.427 10.167 25.266 25.192 24.917 44.827-.375 21.102-21.606 42.016-42.69 42.578-12.086.322-22.858-2.184-32.643-9.619-19.365-14.714-23.374-44.709-8.488-64.239 11.983-15.722 34.791-24.685 58.905-13.547zm166.255-148.11c21.714 15.916 26.056 44.303 10.354 65.929-13.911 19.158-43.92 24.046-62.995 10.683-22.188-15.545-26.082-44.573-12.956-64.331 14.478-21.795 45.52-27.739 65.598-12.28zm75.871 239.239c7.771 10.156 11.128 21.269 10.828 33.727-.506 21.048-21.695 41.94-42.725 42.544-15.435.443-28.166-4.312-38.692-15.797-12.772-13.935-14.969-35.984-5.957-52.368 6.384-11.606 15.973-19.752 28.852-22.74 18.306-4.247 34.585-.144 47.694 14.635zM395.796 617.415c-17.006-5.513-28.238-16.49-32.158-33.477-6.178-26.774 9.51-51.731 36.433-56.584 28.748-5.182 49.845 13.998 54.284 38.191 4.465 24.337-12.921 48.669-37.421 53.142-6.813 1.244-13.917.733-21.139-1.272z" fill="#d9d9d9"/></svg>
